src/actions/24/format-text-direction-vertical.svg

<svg xmlns="http://www.w3.org/2000/svg" viewBox="0 0 24 24">
  <defs id="defs3051">
    <style type="text/css" id="current-color-scheme">
      .ColorScheme-Text {
        color:#2e3440;
      }
      </style>
  </defs>
 <path style="fill:currentColor;fill-opacity:1;stroke:none" 
     d="M 7.9433594 4 L 4 10.828125 L 4 11 L 5.0566406 11 L 6.2109375 9 L 10.789062 9 L 11.943359 11 L 13 11 L 13 10.828125 L 9.0566406 4 L 9 4 L 7.9433594 4 z M 16 4 L 16 17 L 17 17 L 17 4 L 16 4 z M 19 4 L 19 17 L 20 17 L 20 4 L 19 4 z M 8.5 5.0371094 L 10.210938 8 L 6.7890625 8 L 8.5 5.0371094 z M 4 12 L 4 17 L 5 17 L 5 12 L 4 12 z M 7 12 L 7 17 L 8 17 L 8 12 L 7 12 z M 10 12 L 10 17 L 11 17 L 11 12 L 10 12 z M 13 12 L 13 17 L 14 17 L 14 12 L 13 12 z M 4 18 L 6 20 L 8 18 L 4 18 z M 10 18 L 12 20 L 14 18 L 10 18 z M 16 18 L 18 20 L 20 18 L 16 18 z "
     class="ColorScheme-Text"
     />
</svg>

<svg viewBox="0 0 24 24" xmlns="http://www.w3.org/2000/svg">
 <defs>
  <style type="text/css">.ColorScheme-Text {
        color:#2e3440;
      }</style>
 </defs>
 <path class="ColorScheme-Text" d="m7.9434 4-3.9434 6.8281v0.17188h1.0566l1.1543-2h4.5781l1.1543 2h1.0566v-0.17188l-3.9434-6.8281h-0.056641-1.0566zm8.0566 0v13h1v-13h-1zm3 0v13h1v-13h-1zm-10.5 1.0371 1.7109 2.9629h-3.4219l1.7109-2.9629zm-4.5 6.9629v5h1v-5h-1zm3 0v5h1v-5h-1zm3 0v5h1v-5h-1zm3 0v5h1v-5h-1zm-9 6 2 2 2-2h-4zm6 0 2 2 2-2h-4zm6 0 2 2 2-2h-4z" fill="currentColor"/>
</svg>
